assets/icons/uE02B-toggles.svg

<svg xmlns="http://www.w3.org/2000/svg" width="896" height="1232" viewBox="0 0 896 1232"><path d="M392 672V560h112v112H392zM112 448V336h112v112H112zm560 112V448h112v112H672zm168-224q23 0 39.5 16.5T896 392v224q0 23-16.5 39.5T840 672h-56v280H672V672h-56v56q0 23-16.5 39.5T560 784h-56v168H392V784h-56q-23 0-39.5-16.5T280 728V560h-56v392H112V560H56q-23 0-39.5-16.5T0 504V280q0-23 16.5-39.5T56 224h56V56h112v168h56q23 0 39.5 16.5T336 280v168h56V56h112v392h56v-56q0-23 16.5-39.5T616 336h56V56h112v280h56zM56 504h224V280H56v224zm280 224h224V504H336v224zm280-112h224V392H616v224z"/></svg>

<?xml version="1.0" encoding="UTF-8" standalone="no"?><svg   xmlns:svg="http://www.w3.org/2000/svg"   xmlns="http://www.w3.org/2000/svg"   version="1.1"   width="896"   height="1232"   viewBox="0 0 896 1232">  <path     d="M392 672V560H504V672H392zM112 448V336H224V448H112zM672 560V448H784V560H672zM840 336Q863 336 879.5 352.5T896 392V616Q896 639 879.5 655.5T840 672H784V952H672V672H616V728Q616 751 599.5 767.5T560 784H504V952H392V784H336Q313 784 296.5 767.5T280 728V560H224V952H112V560H56Q33 560 16.5 543.5T0 504V280Q0 257 16.5 240.5T56 224H112V56H224V224H280Q303 224 319.5 240.5T336 280V448H392V56H504V448H560V392Q560 369 576.5 352.5T616 336H672V56H784V336H840zM56 504H280V280H56V504zM336 728H560V504H336V728zM616 616H840V392H616V616z"     id="icon244" /></svg>
